X:6482
T:The Alston Fiddle
O:england
M:4/4
L:1/8
C:Taz Tarry
S:Copyright B.Tarry, November 1988
R:Reel
K:D
E2BA FAFA|defe cAFD|E2BA FAGA|Adef aecA|E2 BA FAGA|BAGA BAcA|Adef gecB|
1A2d2d2D2:|2A2d2d2A2:|
f2af gecA|DFAd efge|f2 af gfed|cAceg2g2|f2af gecA
|DFAd efge|fdge fdec|d
BAF D2D2:|


